public/icons/page_not_found_icon.svg

<svg width="152" height="152" viewBox="0 0 152 152" fill="none" xmlns="http://www.w3.org/2000/svg">
<path d="M70.531 71.2271L70.528 71.2347C70.1998 72.0714 69.7026 72.8313 69.0673 73.467C68.433 74.1018 67.6747 74.599 66.8397 74.9278C65.0128 75.6783 63.0506 76.0439 61.0759 76.0017C58.2981 75.9871 55.5488 75.4405 52.9767 74.3913L52.9759 74.3909C43.9305 70.6819 39.1061 65.8866 38.6214 59.6609C38.3085 55.8014 39.7161 50.1512 43.5993 46.8692L43.605 46.8644L43.6051 46.8644C45.0272 45.6986 46.7155 44.9024 48.5196 44.5466C50.3198 44.1917 52.1796 44.2863 53.9344 44.8219C59.1701 46.1527 64.3321 50.8774 67.8031 57.3751L70.531 71.2271ZM70.531 71.2271L70.5337 71.2194M70.531 71.2271L70.5337 71.2194M70.5337 71.2194C71.1279 69.5455 71.1315 67.3792 70.6551 65.0087M70.5337 71.2194L70.6551 65.0087M70.6551 65.0087C70.177 62.6294 69.2068 60.0009 67.8032 57.3753L70.6551 65.0087ZM41.9874 59.3962L41.9873 59.3948C41.8621 57.8379 42.1045 55.9389 42.7393 54.1259C43.3743 52.3124 44.389 50.621 45.778 49.4462L45.778 49.4462L45.7796 49.4448C47.0944 48.3233 48.7732 47.7198 50.5011 47.7475L50.5058 47.7475C51.3781 47.7534 52.2464 47.8676 53.0905 48.0876L53.0905 48.0877L53.0941 48.0885C57.3252 49.1583 61.7379 53.1825 64.8288 58.9629C66.0055 61.1637 66.8424 63.3969 67.2792 65.3669C67.718 67.3456 67.7388 68.9939 67.3601 70.0755C67.1896 70.4747 66.9395 70.8349 66.625 71.1342C66.307 71.4368 65.93 71.6706 65.5176 71.821L65.501 71.8271L65.4848 71.8343C64.1349 72.4379 62.3039 72.6998 60.3034 72.6025C58.3089 72.5056 56.1828 72.0533 54.2603 71.2641L54.2599 71.2639C46.2156 67.9711 42.3488 64.0581 41.9874 59.3962Z" fill="#A5A4B1" stroke="#A5A4B1"/>
<path d="M69.5149 89.6562C69.5149 90.1038 69.6927 90.533 70.0091 90.8495C70.3256 91.166 70.7548 91.3438 71.2024 91.3438H80.7974C81.2449 91.3438 81.6742 91.166 81.9906 90.8495C82.3071 90.533 82.4849 90.1038 82.4849 89.6562C82.4849 89.2087 82.3071 88.7795 81.9906 88.463C81.6742 88.1465 81.2449 87.9688 80.7974 87.9688H71.2024C70.7548 87.9688 70.3256 88.1465 70.0091 88.463L70.3627 88.8166L70.0091 88.463C69.6927 88.7795 69.5149 89.2087 69.5149 89.6562Z" fill="#A5A4B1" stroke="#A5A4B1"/>
<path d="M107.425 104.927C106.893 104.184 105.919 102.931 104.677 101.812C103.529 100.776 102.042 99.7536 100.384 99.4711C106.816 92.4797 111.623 83.8129 114.809 76.9108L114.81 76.9106C118.336 69.2674 120.786 59.4214 121.04 49.361C121.293 39.3022 119.353 28.9553 114.018 20.3721L114.018 20.3712C106.511 8.32183 93.3148 1.80414 75.9964 1.37531L75.9716 1.37469L75.9468 1.37531C58.6848 1.80418 45.4885 8.32228 37.9883 20.3716L37.9881 20.3719C32.6501 28.9551 30.7083 39.3021 30.9629 49.3619C31.2175 59.4234 33.67 69.2713 37.2027 76.9181L37.2029 76.9184C40.3888 83.8084 45.2001 92.4834 51.6264 99.4757C49.9661 99.7581 48.4785 100.781 47.3297 101.818C46.0883 102.938 45.1146 104.191 44.5849 104.932C43.61 106.289 42.6079 108.025 41.9263 109.809C41.2544 111.567 40.8415 113.507 41.2153 115.206L41.2197 115.226L41.2248 115.246C41.4883 116.249 41.9435 117.188 42.5619 118.013C38.3908 121.82 34.6637 126.087 31.4526 130.735C30.801 131.614 30.341 132.62 30.1024 133.688C29.8624 134.763 29.8517 135.875 30.0709 136.954L30.0761 136.98L30.0827 137.005C30.4775 138.531 31.4151 139.746 32.5092 140.725C33.6001 141.701 34.8982 142.488 36.0988 143.149C40.8803 145.789 55.2257 150.625 76.0001 150.625C96.7764 150.625 111.122 145.789 115.909 143.145C117.109 142.482 118.406 141.694 119.496 140.719C120.59 139.74 121.527 138.527 121.924 137.002L121.931 136.976L121.936 136.95C122.156 135.871 122.146 134.759 121.906 133.684C121.668 132.616 121.208 131.61 120.557 130.73C117.346 126.083 113.619 121.815 109.448 118.009C110.066 117.185 110.521 116.246 110.785 115.244L110.79 115.223L110.795 115.202C111.165 113.502 110.751 111.562 110.079 109.804C109.397 108.02 108.397 106.284 107.425 104.927ZM107.425 104.927C107.425 104.927 107.425 104.928 107.425 104.928L106.611 105.509L107.424 104.927C107.424 104.927 107.425 104.927 107.425 104.927ZM73.2426 123.98C73.2139 123.983 73.1852 123.986 73.1564 123.989C73.1553 123.989 73.1543 123.989 73.1532 123.989C72.8142 124.022 72.4745 124.049 72.1343 124.069C72.1877 123.93 72.2421 123.79 72.2987 123.648L60.2349 105.756C66.9936 110.356 73.2197 118.371 74.5471 123.813C74.2155 123.864 73.8831 123.909 73.55 123.947M73.2426 123.98C73.2379 123.992 73.2331 124.005 73.2282 124.017L73.2276 124.019C73.1072 124.321 73.0007 124.603 72.8907 124.894C72.8748 124.936 72.8588 124.979 72.8427 125.021C73.1442 124.996 73.4453 124.966 73.7458 124.931C73.7026 124.617 73.637 124.289 73.55 123.947M73.2426 123.98C73.32 123.774 73.3653 123.559 73.3784 123.343M73.2426 123.98C73.3451 123.97 73.4476 123.958 73.55 123.947M73.55 123.947C73.4998 123.75 73.4425 123.548 73.3784 123.343M74.7366 124.796L74.6901 124.497C74.7075 124.597 74.723 124.697 74.7366 124.796ZM74.7366 124.796L73.8125 124.923C74.1212 124.886 74.4293 124.843 74.7366 124.796ZM73.3784 123.343C73.3987 123.006 73.3411 122.666 73.2059 122.35C73.095 122.091 72.9362 121.858 72.7404 121.663M73.3784 123.343C73.2844 123.042 73.1757 122.732 73.0528 122.415C72.9571 122.169 72.8529 121.918 72.7404 121.663M72.7404 121.663C71.9268 119.818 70.6785 117.76 69.1014 115.681C66.5224 112.283 63.1598 108.957 59.6722 106.583L59.6714 106.583C56.8601 104.665 54.4715 103.753 52.8427 103.753H52.8396C52.6996 103.753 52.5597 103.761 52.4206 103.776L52.4177 103.777C52.0367 103.819 51.3965 104.11 50.5776 104.785C49.8507 105.385 49.0693 106.215 48.3232 107.216L48.1355 107.477C47.1891 108.796 46.4395 110.208 45.9717 111.466C45.5006 112.733 45.3707 113.697 45.4683 114.235C45.7692 115.139 46.3356 115.932 47.0941 116.509L47.1304 116.537L47.1641 116.568C49.0685 118.313 52.3271 120.154 56.282 121.59C60.0115 122.943 64.288 123.91 68.5034 124.107C68.7151 123.538 68.9341 122.964 69.1704 122.382L69.1726 122.377C69.3928 121.843 69.8153 121.417 70.3478 121.194C70.8804 120.97 71.4797 120.966 72.0152 121.183C72.2892 121.294 72.5351 121.458 72.7404 121.663ZM65.3157 146.015C65.3156 146.015 65.3155 146.015 65.3154 146.015L65.3151 145.79M65.3157 146.015L65.3153 145.79M65.3157 146.015C65.5953 146.015 65.8698 145.961 66.1254 145.858C65.8536 145.836 65.5836 145.814 65.3153 145.79M65.3151 145.79C65.3151 145.79 65.3152 145.79 65.3153 145.79M65.3151 145.79L65.3138 145.015M65.3151 145.79C65.2112 145.781 65.1077 145.772 65.0044 145.763L65.1262 145L65.3138 145.015M65.3153 145.79L65.3138 145.015M99.5167 100.393C99.0201 100.375 98.5226 100.404 98.0306 100.479C98.3892 100.121 98.7432 99.7578 99.0925 99.389L99.5167 100.393ZM104.897 116.508L104.861 116.535L104.827 116.566C102.925 118.309 99.6683 120.148 95.7143 121.583C91.9852 122.936 87.708 123.902 83.4902 124.101C83.2797 123.537 83.062 122.964 82.8269 122.381C82.7205 122.113 82.5625 121.87 82.3619 121.664C82.1607 121.457 81.9205 121.292 81.6553 121.179C81.39 121.065 81.1049 121.005 80.8164 121.002C80.5279 120.999 80.2417 121.054 79.9743 121.162L80.3493 122.089L79.9742 121.162C79.7068 121.27 79.4634 121.43 79.258 121.633C79.2502 121.641 79.2424 121.648 79.2346 121.656C80.0272 119.837 81.2422 117.817 82.785 115.772C85.3176 112.416 88.644 109.113 92.1571 106.685C93.7099 105.615 95.1581 104.834 96.437 104.347C97.7257 103.858 98.7831 103.691 99.5802 103.777C99.9614 103.82 100.601 104.111 101.419 104.785C102.208 105.436 103.062 106.359 103.865 107.477C104.811 108.796 105.561 110.207 106.028 111.465C106.499 112.733 106.626 113.695 106.527 114.23C106.225 115.135 105.657 115.929 104.897 116.508ZM78.611 123.321C78.6244 123.544 78.6722 123.765 78.7528 123.975C78.6478 123.964 78.543 123.952 78.4382 123.94C78.4885 123.738 78.5462 123.532 78.611 123.321ZM89.6935 103.053L89.6933 103.053C80.8206 109 71.0904 108.986 62.1527 102.937C52.4668 96.3727 45.4149 84.233 41.1818 75.0826C37.8891 67.965 35.5778 58.76 35.3198 49.3682C35.0618 39.9744 36.859 30.4688 41.6993 22.6869C48.4104 11.9071 59.8769 6.15809 75.9717 5.75032C92.1242 6.15811 103.59 11.9077 110.301 22.6873C115.143 30.4691 116.941 39.9746 116.685 49.3685C116.429 58.7602 114.122 67.9652 110.836 75.083C106.582 84.2914 99.4831 96.4941 89.6935 103.053ZM66.9761 128.392C65.3385 133.317 64.0616 138.355 63.1559 143.467L63.1543 143.476L63.1529 143.485C63.0621 144.057 63.2024 144.642 63.5428 145.112C63.7099 145.342 63.9185 145.535 64.1553 145.683C50.0652 144.307 40.8921 140.799 38.202 139.314L38.2007 139.313C37.309 138.822 36.3905 138.27 35.6516 137.657C34.9158 137.048 34.4719 136.47 34.3206 135.946C34.2526 135.469 34.2796 134.983 34.4003 134.517C34.5254 134.033 34.7482 133.581 35.0552 133.187L35.072 133.166L35.0877 133.143C38.1669 128.713 41.7412 124.65 45.7408 121.033C50.3808 124.472 58.4973 127.726 66.9761 128.392Z" fill="#A5A4B1" stroke="#A5A4B1" stroke-width="2"/>
<path d="M99.0232 74.3912L99.0238 74.3909C108.07 70.6864 112.893 65.8873 113.379 59.6523C113.688 55.7939 112.29 50.149 108.405 46.869L108.405 46.8689L108.399 46.8642C106.977 45.6992 105.289 44.9035 103.485 44.5478C101.686 44.1929 99.8262 44.2871 98.0716 44.8218C92.8357 46.1526 87.6737 50.8798 84.2004 57.375L84.2004 57.375C82.7966 60.0008 81.8276 62.6297 81.3501 65.0092C80.8744 67.3798 80.8781 69.5458 81.4696 71.2188L81.4724 71.2267L81.4755 71.2345C81.8032 72.0708 82.2998 72.8305 82.9344 73.4661C83.5681 74.1009 84.3257 74.5984 85.16 74.9276C86.987 75.6782 88.9492 76.0438 90.924 76.0016C93.7017 75.9868 96.451 75.4401 99.0232 74.3912ZM98.9058 48.092L98.9092 48.0911C99.7543 47.8712 100.623 47.7569 101.497 47.751L101.501 47.751C103.23 47.7234 104.909 48.3269 106.225 49.4484L106.227 49.4495C107.614 50.6238 108.627 52.3132 109.262 54.1248C109.896 55.9358 110.138 57.8331 110.014 59.3901L110.014 59.3912C109.65 64.0595 105.783 67.9748 97.7433 71.2723L97.7432 71.2723C95.8214 72.0609 93.6955 72.5129 91.7013 72.6099C89.701 72.7071 87.8703 72.4456 86.521 71.8425L86.5043 71.835L86.4872 71.8288C86.0739 71.6791 85.6959 71.4456 85.377 71.143C85.0617 70.8438 84.8109 70.4833 84.6399 70.0838C84.261 68.9995 84.282 67.3499 84.7207 65.3709C85.1576 63.4003 85.9944 61.1672 87.1711 58.9663C90.262 53.186 94.6747 49.1617 98.9058 48.092Z" fill="#A5A4B1" stroke="#A5A4B1"/>
<path d="M73.1499 82.0932H73.1499C73.455 82.0932 73.7543 82.0105 74.0161 81.8539C74.2227 81.7303 74.3997 81.5644 74.5362 81.3679C74.9964 81.1882 75.4865 81.0958 75.9815 81.0958C76.4763 81.0958 76.9663 81.1881 77.4264 81.3677C77.6024 81.6222 77.8458 81.8244 78.1309 81.9507C78.4751 82.1032 78.8605 82.1362 79.2256 82.0444C79.5907 81.9526 79.9147 81.7414 80.1459 81.4443C80.3772 81.1472 80.5024 80.7813 80.5018 80.4048L80.0018 80.4057H80.5018C80.5018 79.6982 80.1555 79.1677 79.6932 78.7934C79.2442 78.43 78.6717 78.199 78.1414 78.0481C77.0785 77.7457 76.0211 77.7207 75.9762 77.7207C75.9311 77.7207 74.8766 77.7457 73.8165 78.0482C73.2876 78.1991 72.7165 78.4303 72.2686 78.7939C71.8073 79.1684 71.4624 79.6988 71.4624 80.4057C71.4624 80.8533 71.6402 81.2825 71.9567 81.5989C72.2731 81.9154 72.7023 82.0932 73.1499 82.0932Z" fill="#A5A4B1" stroke="#A5A4B1"/>
</svg>

<svg width="152" height="152" fill="none" xmlns="http://www.w3.org/2000/svg"><path d="m70.531 71.227-.003.008a6.532 6.532 0 0 1-3.688 3.693 14.361 14.361 0 0 1-5.764 1.074 21.746 21.746 0 0 1-8.1-1.61v-.001c-9.045-3.71-13.87-8.504-14.355-14.73-.313-3.86 1.095-9.51 4.978-12.792l.006-.005a11.157 11.157 0 0 1 10.33-2.042c5.235 1.33 10.397 6.055 13.868 12.553l2.728 13.852Zm0 0 .003-.008m-.003.008.003-.008m0 0c.594-1.673.597-3.84.121-6.21m-.121 6.21.121-6.21m0 0c-.478-2.38-1.448-5.008-2.852-7.634l2.852 7.634Zm-28.668-5.613v-.001c-.125-1.557.117-3.456.752-5.27.635-1.813 1.65-3.504 3.039-4.679l.002-.001a7.1 7.1 0 0 1 4.721-1.697h.005c.872.005 1.74.12 2.584.34h.004c4.231 1.07 8.644 5.094 11.735 10.875 1.177 2.2 2.013 4.434 2.45 6.404.439 1.979.46 3.627.081 4.709a3.192 3.192 0 0 1-1.842 1.745l-.017.006-.016.007c-1.35.604-3.181.866-5.182.769a18.596 18.596 0 0 1-6.043-1.339c-8.044-3.293-11.911-7.206-12.273-11.868Zm27.528 30.26a1.688 1.688 0 0 0 1.687 1.688h9.595a1.687 1.687 0 1 0 0-3.375h-9.595a1.69 1.69 0 0 0-1.193.494l.354.354-.354-.354a1.688 1.688 0 0 0-.494 1.193Z" fill="#A5A4B1" stroke="#A5A4B1"/><path d="M107.425 104.927c-.532-.743-1.506-1.996-2.748-3.115-1.148-1.036-2.635-2.058-4.293-2.34 6.432-6.992 11.239-15.66 14.425-22.561h.001c3.526-7.644 5.976-17.49 6.23-27.55.253-10.059-1.687-20.406-7.022-28.989-7.507-12.05-20.703-18.568-38.022-18.997h-.049c-17.262.43-30.459 6.947-37.959 18.997-5.338 8.583-7.28 18.93-7.025 28.99.255 10.061 2.707 19.91 6.24 27.556 3.186 6.89 7.997 15.565 14.423 22.558-1.66.282-3.148 1.305-4.296 2.342-1.242 1.12-2.215 2.373-2.745 3.114-.975 1.357-1.977 3.093-2.659 4.877-.672 1.758-1.084 3.698-.71 5.397l.004.02.005.02a8.004 8.004 0 0 0 1.337 2.767 74.744 74.744 0 0 0-11.11 12.722 7.823 7.823 0 0 0-1.381 6.219l.005.026.007.025c.395 1.526 1.332 2.741 2.426 3.72 1.091.976 2.39 1.763 3.59 2.424 4.781 2.64 19.127 7.476 39.901 7.476 20.776 0 35.122-4.836 39.909-7.48 1.2-.663 2.497-1.451 3.587-2.426 1.094-.979 2.031-2.192 2.428-3.717l.007-.026.005-.026a7.816 7.816 0 0 0-1.379-6.22 74.736 74.736 0 0 0-11.109-12.721 8.01 8.01 0 0 0 1.337-2.765l.005-.021.005-.021c.37-1.7-.044-3.64-.716-5.398-.682-1.784-1.682-3.52-2.654-4.877Zm0 0v.001l-.814.581.813-.582h.001ZM73.243 123.98l-.087.009h-.003c-.339.033-.678.06-1.019.08.054-.139.108-.279.165-.421l-12.064-17.892c6.759 4.6 12.985 12.615 14.312 18.057-.331.051-.664.096-.997.134m-.307.033-.015.037v.002c-.12.302-.227.584-.337.875l-.048.127c.301-.025.602-.055.903-.09a8.95 8.95 0 0 0-.196-.984m-.307.033c.077-.206.122-.421.135-.637m-.135.637.307-.033m0 0a11.75 11.75 0 0 0-.172-.604m1.359 1.453-.047-.299c.017.1.033.2.047.299Zm0 0-.924.127c.308-.037.616-.08.924-.127Zm-1.359-1.453a2.189 2.189 0 0 0-.638-1.68m.638 1.68a14.671 14.671 0 0 0-.325-.928c-.096-.246-.2-.497-.313-.752m0 0c-.813-1.845-2.061-3.903-3.639-5.982-2.579-3.398-5.941-6.724-9.429-9.098-2.812-1.918-5.2-2.83-6.83-2.83h-.002c-.14 0-.28.008-.42.023l-.002.001c-.381.042-1.021.333-1.84 1.008-.727.6-1.509 1.43-2.255 2.431l-.188.261c-.946 1.319-1.695 2.731-2.163 3.989-.471 1.267-.601 2.231-.504 2.769a4.741 4.741 0 0 0 1.626 2.274l.036.028.034.031c1.904 1.745 5.163 3.586 9.118 5.022 3.73 1.353 8.006 2.32 12.221 2.517.212-.569.431-1.143.667-1.725l.003-.005a2.186 2.186 0 0 1 3.567-.714Zm-7.424 24.352v-.225m0 .225v-.225m0 .225c.28 0 .554-.054.81-.157a96.377 96.377 0 0 1-.81-.068m0 0-.002-.775m.001.775-.31-.027.121-.763.188.015m.001.775-.001-.775m34.203-44.622a7.95 7.95 0 0 0-1.486.086c.358-.358.712-.721 1.061-1.09l.425 1.004Zm5.38 16.115-.036.027-.034.031c-1.902 1.743-5.159 3.582-9.113 5.017-3.729 1.353-8.006 2.319-12.224 2.518a70.285 70.285 0 0 0-.663-1.72 2.18 2.18 0 0 0-1.172-1.202 2.182 2.182 0 0 0-1.68-.017l.374.927-.375-.927a2.18 2.18 0 0 0-.716.471l-.023.023c.792-1.819 2.007-3.839 3.55-5.884 2.533-3.356 5.859-6.659 9.372-9.087 1.553-1.07 3.001-1.851 4.28-2.338 1.289-.489 2.346-.656 3.143-.57.381.043 1.021.334 1.839 1.008.789.651 1.643 1.574 2.446 2.692.946 1.319 1.696 2.73 2.163 3.988.471 1.268.598 2.23.499 2.765a4.758 4.758 0 0 1-1.63 2.278Zm-26.286 6.813c.013.223.061.444.142.654l-.315-.035c.05-.202.108-.408.173-.619Zm11.082-20.268c-8.872 5.947-18.603 5.933-27.54-.116-9.686-6.564-16.738-18.704-20.971-27.854-3.293-7.118-5.604-16.323-5.862-25.715-.258-9.394 1.539-18.9 6.38-26.681C48.41 11.907 59.876 6.158 75.971 5.75c16.152.408 27.618 6.158 34.329 16.937 4.842 7.782 6.64 17.288 6.384 26.681-.256 9.392-2.563 18.597-5.849 25.715-4.254 9.208-11.353 21.411-21.142 27.97Zm-22.717 25.339a106.86 106.86 0 0 0-3.82 15.075l-.002.009-.001.009a2.189 2.189 0 0 0 1.002 2.198c-14.09-1.376-23.263-4.884-25.953-6.369l-.001-.001c-.892-.491-1.81-1.043-2.55-1.656-.735-.609-1.18-1.187-1.33-1.711a3.648 3.648 0 0 1 .734-2.759l.017-.021.016-.023a70.841 70.841 0 0 1 10.653-12.11c4.64 3.439 12.756 6.693 21.235 7.359Z" fill="#A5A4B1" stroke="#A5A4B1" stroke-width="2"/><path d="M99.023 74.391c9.047-3.705 13.87-8.504 14.356-14.739.309-3.858-1.089-9.503-4.974-12.783l-.006-.005a11.16 11.16 0 0 0-10.327-2.042c-5.236 1.33-10.398 6.058-13.872 12.553-1.403 2.626-2.372 5.255-2.85 7.634-.476 2.37-.472 4.537.12 6.21l.002.008.004.007a6.53 6.53 0 0 0 3.684 3.694 14.36 14.36 0 0 0 5.764 1.074 21.757 21.757 0 0 0 8.1-1.61Zm-.117-26.299h.003c.845-.22 1.714-.335 2.588-.341h.004a7.107 7.107 0 0 1 4.724 1.697l.002.002c1.387 1.174 2.4 2.863 3.035 4.675.634 1.81.876 3.708.752 5.265v.001c-.364 4.669-4.231 8.584-12.27 11.881A18.603 18.603 0 0 1 91.7 72.61c-2 .097-3.83-.164-5.18-.767l-.017-.008-.017-.006a3.193 3.193 0 0 1-1.847-1.745c-.379-1.085-.358-2.734.08-4.713.438-1.97 1.274-4.204 2.451-6.405 3.091-5.78 7.504-9.804 11.735-10.874ZM73.15 82.093a1.687 1.687 0 0 0 1.386-.725 3.973 3.973 0 0 1 2.89 0 1.688 1.688 0 0 0 3.076-.963h-.5.5c0-.707-.346-1.237-.809-1.612-.449-.363-1.021-.594-1.552-.745a9.511 9.511 0 0 0-2.165-.327c-.045 0-1.1.025-2.16.327-.528.151-1.1.382-1.547.746-.462.374-.807.905-.807 1.612a1.687 1.687 0 0 0 1.688 1.687Z" fill="#A5A4B1" stroke="#A5A4B1"/></svg>
